SVG_Azure_Grouped/Networking/Mobile Networks.svg

<?xml version="1.0" encoding="UTF-8" standalone="no"?>
<!DOCTYPE svg PUBLIC "-//W3C//DTD SVG 1.1//EN" "http://www.w3.org/Graphics/SVG/1.1/DTD/svg11.dtd">
<!-- Generated by Microsoft Visio, SVG Export Mobile Networks.svg Page-1 -->
<svg xmlns="http://www.w3.org/2000/svg" xmlns:xlink="http://www.w3.org/1999/xlink" xmlns:ev="http://www.w3.org/2001/xml-events"
		width="0.944882in" height="1.09013in" viewBox="0 0 68.0315 78.4896" xml:space="preserve" color-interpolation-filters="sRGB"
		class="st6">
	<style type="text/css">
	<![CDATA[
		.st1 {fill:url(#grad0-6)}
		.st2 {stroke:none;stroke-linecap:butt;stroke-width:4.78125}
		.st3 {fill:url(#grad0-11);stroke:none;stroke-linecap:butt;stroke-width:4.78125}
		.st4 {fill:#86d633;stroke:none;stroke-linecap:butt;stroke-width:4.78125}
		.st5 {fill:#ffffff;stroke:none;stroke-linecap:butt;stroke-width:4.78125}
		.st6 {fill:none;fill-rule:evenodd;font-size:12px;overflow:visible;stroke-linecap:square;stroke-miterlimit:3}
	]]>
	</style>

	<defs id="Patterns_And_Gradients">
		<linearGradient id="grad0-6" x1="0" y1="0" x2="1" y2="0" gradientTransform="rotate(-90 0.5 0.5)">
			<stop offset="0" stop-color="#005ba1" stop-opacity="1"/>
			<stop offset="0.2" stop-color="#0068b7" stop-opacity="1"/>
			<stop offset="0.42" stop-color="#0071c7" stop-opacity="1"/>
			<stop offset="0.67" stop-color="#0076d1" stop-opacity="1"/>
			<stop offset="1" stop-color="#0078d4" stop-opacity="1"/>
		</linearGradient>
		<linearGradient id="grad0-11" x1="0" y1="0" x2="1" y2="0" gradientTransform="rotate(-90 0.5 0.5)">
			<stop offset="0" stop-color="#32bedd" stop-opacity="1"/>
			<stop offset="1" stop-color="#50e6ff" stop-opacity="1"/>
		</linearGradient>
	</defs>
	<g>
		<title>Page-1</title>
		<g id="group17444-1" transform="translate(5.66929,-34.0157)">
			<title>Mobile Networks.17444</title>
			<g id="group17445-2">
				<title>Sheet.17445</title>
				<g id="shape17446-3" transform="translate(0.232966,-0.00925573)">
					<title>Sheet.17446</title>
					<path d="M43.74 78.33 A12.8358 12.7249 -180 0 0 56.46 66.06 A12.6802 12.5706 -180 0 0 45.45 53.98 A15.991 15.8529
								 -180 0 0 28.98 38.81 A16.4054 16.2636 -180 0 0 13.31 49.41 A15.1454 15.0146 -180 0 0 0 63.85 A15.3628
								 15.2301 -180 0 0 15.9 78.49 L43.74 78.33 Z" class="st1"/>
					<path d="M43.74 78.33 A12.8358 12.7249 -180 0 0 56.46 66.06 A12.6802 12.5706 -180 0 0 45.45 53.98 A15.991 15.8529
								 -180 0 0 28.98 38.81 A16.4054 16.2636 -180 0 0 13.31 49.41 A15.1454 15.0146 -180 0 0 0 63.85 A15.3628
								 15.2301 -180 0 0 15.9 78.49" class="st2"/>
				</g>
				<g id="shape17447-8">
					<title>Sheet.17447</title>
					<path d="M29.95 78.49 L29.95 63.64 L29.94 63.64 C29.78 55.59 23 49.36 14.8 49.35 C7.17 49.35 0 56.16 0.24 64.2
								 C0.46 71.9 7.26 78.27 15.09 78.49 L29.95 78.49 Z" class="st3"/>
				</g>
				<g id="shape17448-12" transform="translate(14.0122,-22.6787)">
					<title>Sheet.17448</title>
					<path d="M0 78.18 C5.48 69.03 15.88 65.25 24.84 68.22 a0.222296 0.220374 0 0 1 0.0924749 0.352599 L20.22 73.71
								 a0.204067 0.202304 0 0 1 -0.21785 0.0537714 C12.13 71.2 5.5 72.48 0.37 78.44 a0.225237 0.223291
								 0 1 1 -0.368121 -0.257397 Z" class="st4"/>
				</g>
				<g id="shape17449-14" transform="translate(14.5946,-20.5808)">
					<title>Sheet.17449</title>
					<path d="M15.04 77.01 L18.27 73.49 a0.17339 0.171892 -180 0 0 -0.0649103 -0.271501 C11.64 70.39 4.6 72.22 0 78.25
								 a0.181838 0.180266 -180 0 0 0.266755 0.239767 C4.53 74.7 9.49 74.85 14.85 77.05 a0.160497 0.15911
								 -180 0 0 0.185394 -0.0361414 Z" class="st4"/>
				</g>
				<g id="shape17450-16" transform="translate(14.5263,-17.6908)">
					<title>Sheet.17450</title>
					<path d="M11.97 77.87 L13.89 75.79 a0.237856 0.235801 -180 0 0 -0.0693562 -0.36494 C8.97 72.99 3.77 74.06 0.01
								 78.13 a0.23919 0.237123 -180 0 0 0.305434 0.362296 C3.83 76.09 7.58 76.07 11.58 77.94 a0.328997
								 0.326154 -180 0 0 0.388128 -0.0687568 Z" class="st4"/>
				</g>
				<g id="shape17451-18" transform="translate(12.7973,-17.038)">
					<title>Sheet.17451</title>
					<path d="M27.33 62.44 A1.38935 1.37734 -180 0 0 26.43 61.47 A20.6962 20.5173 -180 0 0 19.86 60.42 C11.87 60.42
								 4.53 64.73 0.2 71.94 A1.38623 1.37426 -180 0 0 0.18 73.34 A1.40313 1.391 -180 0 0 0.91 73.94 C0.89
								 73.96 0.88 73.98 0.86 74 A1.34266 1.33106 -180 0 0 0.73 75.41 A1.37823 1.36632 -180 0 0 1.56 76.1
								 C1.47 76.19 1.38 76.27 1.29 76.36 A1.41469 1.40246 -180 0 0 3.14 78.47 C4.78 77.34 6.05 77.12 7.87
								 77.12 A11.6896 11.5886 0 0 1 12.81 78.34 A1.54362 1.53028 -180 0 0 13.46 78.49 A1.49961 1.48665
								 -180 0 0 14.57 78.01 L14.64 77.94 L16.49 75.92 A1.41825 1.40599 -180 0 0 16.83 74.73 C16.83 74.71
								 16.82 74.68 16.81 74.66 A1.32355 1.31211 -180 0 0 17.7 74.25 L18.72 73.15 L20.94 70.73 A1.32533
								 1.31387 -180 0 0 21.16 69.28 C21.2 69.28 21.24 69.3 21.29 69.3 A1.3809 1.36897 -180 0 0 22.31 68.85
								 L24.31 66.67 L27.02 63.72 A1.38846 1.37646 -180 0 0 27.33 62.44 ZM15.62 75.14 L13.7 77.22 a0.317438
								 0.314695 0 0 1 -0.236967 0.103135 a0.350782 0.347751 0 0 1 -0.151161 -0.0343784 A12.7891 12.6786
								 -180 0 0 7.87 75.95 A10.0642 9.97723 -180 0 0 2.05 77.84 a0.238745 0.236682 0 0 1 -0.305434 -0.362296
								 C4.16 74.86 7.18 73.48 10.32 73.48 A11.5296 11.4299 0 0 1 15.55 74.77 a0.237856 0.235801 0 0 1 0.0702454
								 0.36494 ZM20.07 69.95 L16.83 73.47 a0.153828 0.152499 0 0 1 -0.115149 0.0498046 a0.181393 0.179826
								 0 0 1 -0.0689116 -0.0136632 A18.1927 18.0354 -180 0 0 9.76 71.96 A11.1797 11.0831 -180 0 0 2.07
								 74.95 a0.17428 0.172774 0 0 1 -0.118261 0.0471601 a0.182727 0.181148 0 0 1 -0.149827 -0.287368 C4.98
								 70.54 9.33 68.37 13.88 68.37 A15.3099 15.1776 0 0 1 20 69.68 a0.17339 0.171892 0 0 1 0.0649103 0.271061
								 ZM26.15 62.93 L21.43 68.07 a0.200066 0.198337 0 0 1 -0.149383 0.0647901 a0.216516 0.214645 0 0 1
								 -0.068467 -0.0110187 A23.1841 22.9837 -180 0 0 14 66.87 C9.23 66.87 5.06 68.76 1.58 72.8 a0.224963
								 0.223019 0 0 1 -0.366343 -0.257397 C5.46 65.45 12.66 61.59 19.86 61.59 A19.5456 19.3766 0 0 1 26.06
								 62.58 a0.219628 0.21773 0 0 1 0.0924749 0.350836 Z" class="st5"/>
				</g>
				<g id="shape17452-20" transform="translate(6.81602,-6.20663)">
					<title>Sheet.17452</title>
					<path d="M0 78.04 L0 76.06 A4.5046 4.46567 -180 0 0 2.36 76.72 A2.24207 2.2227 -180 0 0 3.83 76.29 A1.4627 1.45006
								 -180 0 0 4.36 75.11 C4.36 74.07 3.6 73.55 2.09 73.55 A17.1048 16.9569 -180 0 0 0.17 73.67 L0.57
								 67.83 L6.28 67.83 L6.28 69.71 L2.39 69.71 L2.23 71.81 C2.62 71.78 2.95 71.77 3.24 71.77 A3.72967
								 3.69744 0 0 1 5.84 72.61 A2.95564 2.9301 0 0 1 6.78 74.89 A3.362 3.33294 0 0 1 5.66 77.48 A4.36455
								 4.32683 0 0 1 2.62 78.49 A6.62841 6.57113 0 0 1 0 78.04 ZM16.92 77.61 A7.89994 7.83167 0 0 1 12.99
								 78.49 C11.25 78.49 9.88 78.02 8.88 77.09 C7.88 76.16 7.38 74.87 7.38 73.24 A5.37021 5.32381 0 0
								 1 9.02 69.21 C10.12 68.17 11.57 67.65 13.39 67.65 A9.04031 8.96219 0 0 1 16.41 68.11 L16.41 70.33
								 A6.11402 6.06118 -180 0 0 13.36 69.63 A3.31576 3.28711 -180 0 0 10.89 70.58 A3.49226 3.46208 -180
								 0 0 9.94 73.13 A3.4976 3.46737 -180 0 0 10.79 75.63 A3.04189 3.0156 -180 0 0 13.1 76.51 A3.27664
								 3.24832 -180 0 0 14.49 76.27 L14.49 74.22 L12.33 74.22 L12.33 72.34 L16.92 72.34 L16.92 77.61 Z"
							class="st5"/>
				</g>
			</g>
		</g>
	</g>
</svg>

<?xml version="1.0" encoding="UTF-8" standalone="no"?>
<!-- Generated by Microsoft Visio, SVG Export Mobile Networks.svg Page-1 -->

<svg
   xmlns:dc="http://purl.org/dc/elements/1.1/"
   xmlns:cc="http://creativecommons.org/ns#"
   xmlns:rdf="http://www.w3.org/1999/02/22-rdf-syntax-ns#"
   xmlns:svg="http://www.w3.org/2000/svg"
   xmlns="http://www.w3.org/2000/svg"
   xmlns:sodipodi="http://sodipodi.sourceforge.net/DTD/sodipodi-0.dtd"
   xmlns:inkscape="http://www.inkscape.org/namespaces/inkscape"
   width="0.78416425in"
   height="0.5513491in"
   viewBox="0 0 56.459824 39.697258"
   xml:space="preserve"
   class="st6"
   version="1.1"
   id="svg68"
   sodipodi:docname="Mobile Networks.svg"
   style="font-size:12px;overflow:visible;color-interpolation-filters:sRGB;fill:none;fill-rule:evenodd;stroke-linecap:square;stroke-miterlimit:3"
   inkscape:version="0.92.5 (2060ec1f9f, 2020-04-08)"><metadata
   id="metadata72"><rdf:RDF><cc:Work
       rdf:about=""><dc:format>image/svg+xml</dc:format><dc:type
         rdf:resource="http://purl.org/dc/dcmitype/StillImage" /></cc:Work></rdf:RDF></metadata><sodipodi:namedview
   pagecolor="#ffffff"
   bordercolor="#666666"
   borderopacity="1"
   objecttolerance="10"
   gridtolerance="10"
   guidetolerance="10"
   inkscape:pageopacity="0"
   inkscape:pageshadow="2"
   inkscape:window-width="640"
   inkscape:window-height="480"
   id="namedview70"
   showgrid="false"
   inkscape:zoom="2.2550828"
   inkscape:cx="37.484543"
   inkscape:cy="6.9732465"
   inkscape:window-x="0"
   inkscape:window-y="0"
   inkscape:window-maximized="0"
   inkscape:current-layer="svg68" />
	<style
   type="text/css"
   id="style2">
	<![CDATA[
		.st1 {fill:url(#grad0-6)}
		.st2 {stroke:none;stroke-linecap:butt;stroke-width:4.78125}
		.st3 {fill:url(#grad0-11);stroke:none;stroke-linecap:butt;stroke-width:4.78125}
		.st4 {fill:#86d633;stroke:none;stroke-linecap:butt;stroke-width:4.78125}
		.st5 {fill:#ffffff;stroke:none;stroke-linecap:butt;stroke-width:4.78125}
		.st6 {fill:none;fill-rule:evenodd;font-size:12px;overflow:visible;stroke-linecap:square;stroke-miterlimit:3}
	]]>
	</style>

	<defs
   id="Patterns_And_Gradients">
		<linearGradient
   id="grad0-6"
   x1="0"
   y1="46.275308"
   x2="47.342445"
   y2="46.275308"
   gradientTransform="scale(1.1925873,0.83851302)"
   gradientUnits="userSpaceOnUse">
			<stop
   offset="0"
   stop-color="#005ba1"
   stop-opacity="1"
   id="stop4" />
			<stop
   offset="0.2"
   stop-color="#0068b7"
   stop-opacity="1"
   id="stop6" />
			<stop
   offset="0.42"
   stop-color="#0071c7"
   stop-opacity="1"
   id="stop8" />
			<stop
   offset="0.67"
   stop-color="#0076d1"
   stop-opacity="1"
   id="stop10" />
			<stop
   offset="1"
   stop-color="#0078d4"
   stop-opacity="1"
   id="stop12" />
		</linearGradient>
		<linearGradient
   id="grad0-11"
   x1="0.2318604"
   y1="49.835238"
   x2="29.658382"
   y2="49.835238"
   gradientTransform="scale(1.0098326,0.99026316)"
   gradientUnits="userSpaceOnUse">
			<stop
   offset="0"
   stop-color="#32bedd"
   stop-opacity="1"
   id="stop15" />
			<stop
   offset="1"
   stop-color="#50e6ff"
   stop-opacity="1"
   id="stop17" />
		</linearGradient>
	</defs>
	<g
   id="g66"
   transform="translate(-5.9023615,-4.7774927)">
		<title
   id="title21">Page-1</title>
		<g
   id="group17841-1"
   transform="translate(5.66929,-34.0157)">
			<title
   id="title23">Mobile Networks.17841</title>
			<g
   id="group17842-2">
				<title
   id="title25">Sheet.17842</title>
				<g
   id="shape17843-3"
   transform="translate(0.232966,-0.00925573)">
					<title
   id="title27">Sheet.17843</title>
					<path
   d="M 43.74,78.33 A 12.8358,12.7249 -180 0 0 56.46,66.06 12.6802,12.5706 -180 0 0 45.45,53.98 15.991,15.8529 -180 0 0 28.98,38.81 16.4054,16.2636 -180 0 0 13.31,49.41 15.1454,15.0146 -180 0 0 0,63.85 15.3628,15.2301 -180 0 0 15.9,78.49 Z"
   class="st1"
   id="path29"
   inkscape:connector-curvature="0"
   style="fill:url(#grad0-6)" />
					<path
   d="M 43.74,78.33 A 12.8358,12.7249 -180 0 0 56.46,66.06 12.6802,12.5706 -180 0 0 45.45,53.98 15.991,15.8529 -180 0 0 28.98,38.81 16.4054,16.2636 -180 0 0 13.31,49.41 15.1454,15.0146 -180 0 0 0,63.85 15.3628,15.2301 -180 0 0 15.9,78.49"
   class="st2"
   id="path31"
   inkscape:connector-curvature="0"
   style="stroke:none;stroke-width:4.78125;stroke-linecap:butt" />
				</g>
				<g
   id="shape17844-8">
					<title
   id="title34">Sheet.17844</title>
					<path
   d="M 29.95,78.49 V 63.64 H 29.94 C 29.78,55.59 23,49.36 14.8,49.35 7.17,49.35 0,56.16 0.24,64.2 0.46,71.9 7.26,78.27 15.09,78.49 Z"
   class="st3"
   id="path36"
   inkscape:connector-curvature="0"
   style="fill:url(#grad0-11);stroke:none;stroke-width:4.78125;stroke-linecap:butt" />
				</g>
				<g
   id="shape17845-12"
   transform="translate(14.0122,-22.6787)">
					<title
   id="title39">Sheet.17845</title>
					<path
   d="M 0,78.18 C 5.48,69.03 15.88,65.25 24.84,68.22 a 0.222296,0.220374 0 0 1 0.09248,0.352599 L 20.22,73.71 a 0.204067,0.202304 0 0 1 -0.21785,0.05377 C 12.13,71.2 5.5,72.48 0.37,78.44 A 0.225237,0.223291 0 1 1 0.001879,78.182603 Z"
   class="st4"
   id="path41"
   inkscape:connector-curvature="0"
   style="fill:#86d633;stroke:none;stroke-width:4.78125;stroke-linecap:butt" />
				</g>
				<g
   id="shape17846-14"
   transform="translate(14.5946,-20.5808)">
					<title
   id="title44">Sheet.17846</title>
					<path
   d="m 15.04,77.01 3.23,-3.52 A 0.17339,0.171892 -180 0 0 18.20509,73.218499 C 11.64,70.39 4.6,72.22 0,78.25 a 0.181838,0.180266 -180 0 0 0.266755,0.239767 C 4.53,74.7 9.49,74.85 14.85,77.05 a 0.160497,0.15911 -180 0 0 0.185394,-0.03614 z"
   class="st4"
   id="path46"
   inkscape:connector-curvature="0"
   style="fill:#86d633;stroke:none;stroke-width:4.78125;stroke-linecap:butt" />
				</g>
				<g
   id="shape17847-16"
   transform="translate(14.5263,-17.6908)">
					<title
   id="title49">Sheet.17847</title>
					<path
   d="m 11.97,77.87 1.92,-2.08 A 0.237856,0.235801 -180 0 0 13.82064,75.42506 C 8.97,72.99 3.77,74.06 0.01,78.13 a 0.23919,0.237123 -180 0 0 0.305434,0.362296 C 3.83,76.09 7.58,76.07 11.58,77.94 a 0.328997,0.326154 -180 0 0 0.388128,-0.06876 z"
   class="st4"
   id="path51"
   inkscape:connector-curvature="0"
   style="fill:#86d633;stroke:none;stroke-width:4.78125;stroke-linecap:butt" />
				</g>
				<g
   id="shape17848-18"
   transform="translate(12.7973,-17.038)">
					<title
   id="title54">Sheet.17848</title>
					<path
   d="m 27.33,62.44 a 1.38935,1.37734 -180 0 0 -0.9,-0.97 20.6962,20.5173 -180 0 0 -6.57,-1.05 c -7.99,0 -15.33,4.31 -19.66,11.52 a 1.38623,1.37426 -180 0 0 -0.02,1.4 1.40313,1.391 -180 0 0 0.73,0.6 C 0.89,73.96 0.88,73.98 0.86,74 a 1.34266,1.33106 -180 0 0 -0.13,1.41 1.37823,1.36632 -180 0 0 0.83,0.69 c -0.09,0.09 -0.18,0.17 -0.27,0.26 a 1.41469,1.40246 -180 0 0 1.85,2.11 c 1.64,-1.13 2.91,-1.35 4.73,-1.35 a 11.6896,11.5886 0 0 1 4.94,1.22 1.54362,1.53028 -180 0 0 0.65,0.15 1.49961,1.48665 -180 0 0 1.11,-0.48 l 0.07,-0.07 1.85,-2.02 a 1.41825,1.40599 -180 0 0 0.34,-1.19 c 0,-0.02 -0.01,-0.05 -0.02,-0.07 a 1.32355,1.31211 -180 0 0 0.89,-0.41 l 1.02,-1.1 2.22,-2.42 a 1.32533,1.31387 -180 0 0 0.22,-1.45 c 0.04,0 0.08,0.02 0.13,0.02 a 1.3809,1.36897 -180 0 0 1.02,-0.45 l 2,-2.18 2.71,-2.95 a 1.38846,1.37646 -180 0 0 0.31,-1.28 z M 15.62,75.14 13.7,77.22 A 0.317438,0.314695 0 0 1 13.463033,77.323135 0.350782,0.347751 0 0 1 13.311872,77.288757 12.7891,12.6786 -180 0 0 7.87,75.95 10.0642,9.97723 -180 0 0 2.05,77.84 0.238745,0.236682 0 0 1 1.744566,77.477704 C 4.16,74.86 7.18,73.48 10.32,73.48 a 11.5296,11.4299 0 0 1 5.23,1.29 0.237856,0.235801 0 0 1 0.07024,0.36494 z m 4.45,-5.19 -3.24,3.52 A 0.153828,0.152499 0 0 1 16.714851,73.51981 0.181393,0.179826 0 0 1 16.645941,73.50615 18.1927,18.0354 -180 0 0 9.76,71.96 11.1797,11.0831 -180 0 0 2.07,74.95 0.17428,0.172774 0 0 1 1.951739,74.99716 0.182727,0.181148 0 0 1 1.801912,74.709792 C 4.98,70.54 9.33,68.37 13.88,68.37 a 15.3099,15.1776 0 0 1 6.12,1.31 0.17339,0.171892 0 0 1 0.06491,0.271061 z m 6.08,-7.02 -4.72,5.14 A 0.200066,0.198337 0 0 1 21.280617,68.13479 0.216516,0.214645 0 0 1 21.21215,68.123771 23.1841,22.9837 -180 0 0 14,66.87 c -4.77,0 -8.94,1.89 -12.42,5.93 A 0.224963,0.223019 0 0 1 1.213657,72.542603 C 5.46,65.45 12.66,61.59 19.86,61.59 a 19.5456,19.3766 0 0 1 6.2,0.99 0.219628,0.21773 0 0 1 0.09248,0.350836 z"
   class="st5"
   id="path56"
   inkscape:connector-curvature="0"
   style="fill:#ffffff;stroke:none;stroke-width:4.78125;stroke-linecap:butt" />
				</g>
				<g
   id="shape17849-20"
   transform="translate(6.81602,-6.20663)">
					<title
   id="title59">Sheet.17849</title>
					<path
   d="m 0,78.04 v -1.98 a 4.5046,4.46567 -180 0 0 2.36,0.66 2.24207,2.2227 -180 0 0 1.47,-0.43 1.4627,1.45006 -180 0 0 0.53,-1.18 c 0,-1.04 -0.76,-1.56 -2.27,-1.56 a 17.1048,16.9569 -180 0 0 -1.92,0.12 l 0.4,-5.84 h 5.71 v 1.88 H 2.39 l -0.16,2.1 c 0.39,-0.03 0.72,-0.04 1.01,-0.04 a 3.72967,3.69744 0 0 1 2.6,0.84 2.95564,2.9301 0 0 1 0.94,2.28 A 3.362,3.33294 0 0 1 5.66,77.48 4.36455,4.32683 0 0 1 2.62,78.49 6.62841,6.57113 0 0 1 0,78.04 Z m 16.92,-0.43 a 7.89994,7.83167 0 0 1 -3.93,0.88 c -1.74,0 -3.11,-0.47 -4.11,-1.4 -1,-0.93 -1.5,-2.22 -1.5,-3.85 a 5.37021,5.32381 0 0 1 1.64,-4.03 c 1.1,-1.04 2.55,-1.56 4.37,-1.56 a 9.04031,8.96219 0 0 1 3.02,0.46 v 2.22 a 6.11402,6.06118 -180 0 0 -3.05,-0.7 3.31576,3.28711 -180 0 0 -2.47,0.95 3.49226,3.46208 -180 0 0 -0.95,2.55 3.4976,3.46737 -180 0 0 0.85,2.5 3.04189,3.0156 -180 0 0 2.31,0.88 3.27664,3.24832 -180 0 0 1.39,-0.24 v -2.05 h -2.16 v -1.88 h 4.59 z"
   class="st5"
   id="path61"
   inkscape:connector-curvature="0"
   style="fill:#ffffff;stroke:none;stroke-width:4.78125;stroke-linecap:butt" />
				</g>
			</g>
		</g>
	</g>
</svg>
